X: 23761
T: Little Diamond, The
R: polka
M: 2/4
K: Gmajor
G2 B>A|GE ED|EA AB/A/|GE ED|
G2 B>A|GE ED|EA AB/A/|1 G2 G2:|2 G2 G>A||
BA AG|BA AG|A2 AB/A/|GE ED|
BA AG|BA AG|A2 AB/A/|G2 G>A|
Bd BA|GE ED|EA AB/A/|GE ED|
BA AG|BA AG|A2 AB/A/|G2G2||

